src/topics/icons/teamgrid.svg

<svg height="163" preserveAspectRatio="xMidYMid" viewBox="0 0 256 163" width="256" xmlns="http://www.w3.org/2000/svg"><path d="m0 137.5065 26.771-21.599v-69.058l-26.771-16.732zm43.5033-128.6842v144.352l29.966-25.25v-93.243zm46.5453-8.8223v162.757l29.965-30.726v-101.761zm139.1805 46.8495v69.058l26.771 21.599v-107.389zm-16.7324-38.0272v144.352l-29.966-25.25v-93.243zm-46.5457-8.8223-29.966 30.27v101.761l29.966 30.726z" fill="#12a29b"/></svg>

<?xml version="1.0" encoding="UTF-8" standalone="no"?>
<svg width="256px" height="163px" viewBox="0 0 256 163" version="1.1" xmlns="http://www.w3.org/2000/svg" xmlns:xlink="http://www.w3.org/1999/xlink" preserveAspectRatio="xMidYMid">
    <g>
        <path d="M0,137.5065 L26.771,115.9075 L26.771,46.8495 L0,30.1175 L0,137.5065 Z M43.5033,8.8223 L43.5033,153.1743 L73.4693,127.9243 L73.4693,34.6813 L43.5033,8.8223 Z M90.0486,0 L90.0486,162.757 L120.0136,132.031 L120.0136,30.27 L90.0486,0 Z M229.2291,46.8495 L229.2291,115.9075 L256.0001,137.5065 L256.0001,30.1175 L229.2291,46.8495 Z M212.4967,8.8223 L212.4967,153.1743 L182.5307,127.9243 L182.5307,34.6813 L212.4967,8.8223 Z M165.951,0 L135.985,30.27 L135.985,132.031 L165.951,162.757 L165.951,0 Z" fill="#12A29B"></path>
    </g>
</svg>
